X: 139
T:Gingling Geordy,another way. HA.138
T:Wylam Away,aka. HA.138
M:6/4
L:1/8
Q:1/4=220
S:Henry Atkinson's original MS,Hartburn,N'umberland,1694.
O:England
A:Hartburn,Northumberland
N:In MS the only repeat signs are at end of tune.
N:Preceding tune "Gingling Geordy"  repeats each part. NB
H:1/8
Z:vmp.Neil Brookes, Jan.2004
K:G
ef|g3dB2g2G2B2|g2d2B2A2 fgaf|g3dB2g2G2B2|g3dB2G4||!
d2|d3 B/2c/2d2e3c/2d/2e2|d3B/2c/2d2A4d2|\
d3 B/2c/2d2e3c/2d/2e2|d3B/2c/2d2G4||!
d2|B2d2g2B2d2g2|B2d2g2a2A2d2|\
B2d2g2B2d2g2|B2d2g2G4||!
d2|B3AG2e3dB2|g3dB2a2A2c2|B3AG2e3dB2|g3dB2G4||!
ef|gfed B2d2 efgf|gfed B2A2 fgaf|!
gfed B2d2 efgf|gfed B2G4:|]
